assets/build/img/shopping-order.svg

<svg width="16" height="17" viewBox="0 0 16 17" fill="none" xmlns="http://www.w3.org/2000/svg">
<path d="M15.9192 13.4925L15.0262 2.2382C14.9707 1.51309 14.3573 0.945312 13.6302 0.945312H11.866V3.55926C11.866 3.88297 11.6039 4.145 11.2802 4.145C10.9569 4.145 10.6945 3.88297 10.6945 3.55926V0.945312H5.30578V3.55926C5.30578 3.88297 5.04336 4.145 4.72004 4.145C4.39633 4.145 4.1343 3.88297 4.1343 3.55926V0.945312H2.37008C1.64301 0.945312 1.02953 1.51309 0.974104 2.23664L0.0806666 13.494C0.011565 14.3957 0.324338 15.293 0.938557 15.9561C1.55281 16.6191 2.4236 16.9998 3.32758 16.9998H12.6727C13.5767 16.9998 14.4475 16.6191 15.0618 15.956C15.676 15.293 15.9888 14.3956 15.9192 13.4925ZM10.6391 7.76125L7.60965 10.7907C7.49524 10.9051 7.34528 10.9625 7.19535 10.9625C7.04539 10.9625 6.89547 10.9051 6.78106 10.7907L5.36125 9.37086C5.13242 9.14203 5.13242 8.77145 5.36125 8.54262C5.59008 8.31379 5.96106 8.31379 6.18949 8.54262L7.19539 9.54813L9.81086 6.93266C10.0393 6.70422 10.4103 6.70422 10.6391 6.93266C10.8679 7.16149 10.8679 7.53242 10.6391 7.76125Z" fill="#00642F"/>
</svg>

<svg width="16" height="17" viewBox="0 0 16 17" fill="none" xmlns="http://www.w3.org/2000/svg"><path d="M15.92 13.492l-.894-11.254A1.406 1.406 0 0013.63.945h-1.764V3.56a.586.586 0 11-1.171 0V.945h-5.39V3.56a.586.586 0 11-1.17 0V.945H2.37c-.727 0-1.34.568-1.396 1.292L.081 13.494a3.26 3.26 0 00.858 2.462A3.267 3.267 0 003.328 17h9.345c.904 0 1.774-.38 2.389-1.044.614-.663.927-1.56.857-2.463zm-5.28-5.73L7.61 10.79a.584.584 0 01-.829 0l-1.42-1.42a.585.585 0 11.828-.828l1.006 1.005 2.616-2.615a.586.586 0 01.828.828z" fill="#00642F"/></svg>
